X: 25449
T: Marcha Processional Du Corpus De Pontevedra
R: waltz
M: 3/4
K: Gmajor
fg gf ga|ff fd fa|ee ec eb|ag fe d2|
fg gf ga|ff fd fa|ee ec ea|da d4:|
a|:d'2 af da|d'2 af df|ag ge ca|ba af da|
d'2 af da|d'2 af df|ag ge ca|da d4:|

